X:32
T:Roman Reel
M:2/4
L:1/4
K:Dbmajor
"d"a3/4d/4d'3/4a/4|"G"b3/4a/4g3/4f/4|"A"e3/4f/4g3/4a/4|"d"f3/4e/4d3/4a/4|"d"a3/4d/4d'3/4a/4|"G"b3/4a/4g3/4f/4|"A"e3/4g/4f3/4e/4|"d"d3/2a/2|"A"e3/4g/4"d"f3/4a/4|"em"g3/4f/4"A"e3/4f/4|"d"f3/4a/4"G"g3/4b/4|"d"a3/4g/4"A"f3/4a/4|"d"a3/4f/4d'3/4a/4|"G"b3/4a/4g3/4f/4|"A"e3/4g/4f3/4e/4|"d"d3/2a/2|]

